X:570
T:Oigo sonar una gaita (MG 04)
T:yese sonar una gaita (MG 04)
R:Pasudoble
C:Tradicional
S:Msica Tradicional Asturiana, (C) Tello & Tito. Asturies, 2001.
S:http://pagina.de/MusTradAst <telloytito@asturies.org>
A:Asturies
Z:Mtodu de Gaita 04
M:2/4
L:1/8
Q:3/8=100
E:Nivel 1
K:C
|G3 F|ED EF|G2 G2|{B}A3 G|FE DF|E4-|E4 :|
|: F3 G|AG FG|A2 A2|B3 c|BA GF|G2 G2|
A3 B|AG FE|F2 F2|G3 A|BA GF|E2 E2-|E4 :|
